src/assets/icons/wa-icon.svg

<svg width="24" height="24" viewBox="0 0 24 24" fill="none" xmlns="http://www.w3.org/2000/svg">
<path d="M19.05 4.91005C18.1331 3.98416 17.0411 3.25002 15.8376 2.75042C14.634 2.25081 13.3431 1.99574 12.04 2.00005C6.58005 2.00005 2.13005 6.45005 2.13005 11.9101C2.13005 13.6601 2.59005 15.3601 3.45005 16.8601L2.05005 22.0001L7.30005 20.6201C8.75005 21.4101 10.38 21.8301 12.04 21.8301C17.5 21.8301 21.9501 17.3801 21.9501 11.9201C21.9501 9.27005 20.92 6.78005 19.05 4.91005ZM12.04 20.1501C10.56 20.1501 9.11005 19.7501 7.84005 19.0001L7.54005 18.8201L4.42005 19.6401L5.25005 16.6001L5.05005 16.2901C4.2276 14.9771 3.79097 13.4593 3.79005 11.9101C3.79005 7.37005 7.49005 3.67005 12.03 3.67005C14.23 3.67005 16.3 4.53005 17.85 6.09005C18.6177 6.85392 19.226 7.7626 19.6397 8.76338C20.0534 9.76417 20.2642 10.8371 20.26 11.9201C20.2801 16.4601 16.58 20.1501 12.04 20.1501ZM16.56 13.9901C16.31 13.8701 15.09 13.2701 14.87 13.1801C14.64 13.1001 14.48 13.0601 14.31 13.3001C14.14 13.5501 13.67 14.1101 13.53 14.2701C13.39 14.4401 13.24 14.4601 12.99 14.3301C12.74 14.2101 11.94 13.9401 11 13.1001C10.26 12.4401 9.77005 11.6301 9.62005 11.3801C9.48005 11.1301 9.60005 11.0001 9.73005 10.8701C9.84005 10.7601 9.98005 10.5801 10.1 10.4401C10.22 10.3001 10.27 10.1901 10.35 10.0301C10.43 9.86005 10.39 9.72005 10.33 9.60005C10.27 9.48005 9.77005 8.26005 9.57005 7.76005C9.37005 7.28005 9.16005 7.34005 9.01005 7.33005H8.53005C8.36005 7.33005 8.10005 7.39005 7.87005 7.64005C7.65005 7.89005 7.01005 8.49005 7.01005 9.71005C7.01005 10.9301 7.90005 12.1101 8.02005 12.2701C8.14005 12.4401 9.77005 14.9401 12.25 16.0101C12.84 16.2701 13.3 16.4201 13.66 16.5301C14.25 16.7201 14.79 16.6901 15.22 16.6301C15.7 16.5601 16.69 16.0301 16.89 15.4501C17.1 14.8701 17.1 14.3801 17.03 14.2701C16.96 14.1601 16.81 14.1101 16.56 13.9901Z" fill="#1A4F8E"/>
</svg>

<svg xmlns="http://www.w3.org/2000/svg" width="24" height="24" fill="none"><path fill="#1A4F8E" d="M19.05 4.91A9.82 9.82 0 0 0 12.04 2c-5.46 0-9.91 4.45-9.91 9.91 0 1.75.46 3.45 1.32 4.95L2.05 22l5.25-1.38c1.45.79 3.08 1.21 4.74 1.21 5.46 0 9.91-4.45 9.91-9.91 0-2.65-1.03-5.14-2.9-7.01m-7.01 15.24c-1.48 0-2.93-.4-4.2-1.15l-.3-.18-3.12.82.83-3.04-.2-.31a8.26 8.26 0 0 1-1.26-4.38c0-4.54 3.7-8.24 8.24-8.24 2.2 0 4.27.86 5.82 2.42a8.18 8.18 0 0 1 2.41 5.83c.02 4.54-3.68 8.23-8.22 8.23m4.52-6.16c-.25-.12-1.47-.72-1.69-.81-.23-.08-.39-.12-.56.12-.17.25-.64.81-.78.97-.14.17-.29.19-.54.06-.25-.12-1.05-.39-1.99-1.23-.74-.66-1.23-1.47-1.38-1.72-.14-.25-.02-.38.11-.51.11-.11.25-.29.37-.43s.17-.25.25-.41c.08-.17.04-.31-.02-.43s-.56-1.34-.76-1.84c-.2-.48-.41-.42-.56-.43h-.48c-.17 0-.43.06-.66.31-.22.25-.86.85-.86 2.07s.89 2.4 1.01 2.56c.12.17 1.75 2.67 4.23 3.74.59.26 1.05.41 1.41.52.59.19 1.13.16 1.56.1.48-.07 1.47-.6 1.67-1.18.21-.58.21-1.07.14-1.18s-.22-.16-.47-.28"/></svg>
